!!!SOCIAL_FUNCTION:	songs of the sun dance
!!!PDT:	1918

Specific Region: Dakotas, Minnesota, Montana, Nebraska
!!!REG: Dakotas and Montana
!!!LING_GROUP: Siouan
!!!LANG: Tone
!!!OTL@ENG: Song of the Return of the Young Men
!!!ONM: No. 10
**kern
*Imale
*clefF4
*k[f#c#g#d#]
*M3/4
*>[A,A]
*>norep[A]
*>A
=1!|:
*MM112
4e
4e
8e
8e
=2||
*M2/4
12e
12B
12B
8B
8e
=3
12e
12B
12B
8B
8B
=4
4B
16e
8.e
=5
12e
12B
12B
8B
8B
=6
2B
=7
2B
=8
8B
8B
8B
8A
=9
8G#
8c#
8c#
8B
=10
8G#
8c#
8c#
8B
=11||
*M3/4
2.B
==:|!
*-
!!!CNT: Native American -- Sioux
!!!MRD: 1911/07//-1914///
!!!OCL: Frances Densmore
!!!YOR1: Teton Sioux Music, Bulletin 61,
!!!YOR2: Bureau of American Ethnology, Smithsonian Institution
!!!PPR: Government Printing Office
!!!PPP: Washington, D.C.
!!!PDT: 1918///
!!!ENC: Craig Stuart Sapp
!!!END: 2002/03/25/
!!!EEV: 2002/03/31/
!!!AGN: Ceremonial Song/Song of the Sun Dance
!!!MPN@@SIO: Ishn'la-wicha'
!!!MPN@ENG: Lone Man
!!!TXO: Teton Sioux
!!!MLC: Standing Rock Reservation, South Dakota, United States of America
!!!ARL: 45.9/-100.7#
!!!catalog: Catalogue No. 481
!!!PPG: 112
!!!EFL: 10/245
!!!VTS: 1273564157
